dist/uploads/advantages/4.svg

<svg width="107" height="107" viewBox="0 0 107 107" fill="none" xmlns="http://www.w3.org/2000/svg">
<path d="M49.9333 96.3C30.7303 96.2843 13.5283 84.4245 6.68402 66.4832C-0.160221 48.541 4.77355 28.2373 19.0872 15.4361C33.4018 2.63582 54.1287 -0.00783691 71.1975 8.79041C88.2654 17.5878 98.1382 36.0037 96.0161 55.0892L99.5636 55.4775C99.7648 53.6367 99.8658 51.7855 99.8667 49.9333C99.8667 22.3561 77.5106 0 49.9333 0C22.3561 0 0 22.3561 0 49.9333C0 77.5106 22.3561 99.8667 49.9333 99.8667C51.7863 99.8667 53.6376 99.7648 55.4793 99.5619L55.0874 96.0161C53.3755 96.2051 51.6548 96.3 49.9333 96.3Z" fill="white"/>
<path d="M92.6941 51.7933C92.7194 51.182 92.7333 50.5577 92.7333 49.9333C92.7333 26.2955 73.5712 7.13333 49.9333 7.13333C26.2955 7.13333 7.13333 26.2955 7.13333 49.9333C7.13333 73.5712 26.2955 92.7333 49.9333 92.7333C50.5577 92.7333 51.1785 92.7203 51.795 92.6941L51.6383 89.1275C51.0732 89.1536 50.5054 89.1667 49.9333 89.1667C28.2651 89.1667 10.7 71.6015 10.7 49.9333C10.7 28.2651 28.2651 10.7 49.9333 10.7C71.6015 10.7 89.1667 28.2651 89.1667 49.9333C89.1667 50.5037 89.1545 51.0749 89.1292 51.64L92.6941 51.7933Z" fill="white"/>
<path d="M48.15 14.2667H51.7166V17.8334H48.15V14.2667Z" fill="white"/>
<path d="M23.4532 25.9733L25.9759 23.4524L28.4967 25.975L25.9741 28.4968L23.4532 25.9733Z" fill="white"/>
<path d="M14.2667 48.15H17.8333V51.7167H14.2667V48.15Z" fill="white"/>
<path d="M23.4524 73.8934L25.9733 71.3708L28.4968 73.8917L25.975 76.4143L23.4524 73.8934Z" fill="white"/>
<path d="M48.15 82.0334H51.7166V85.6H48.15V82.0334Z" fill="white"/>
<path d="M82.0334 48.15H85.6001V51.7167H82.0334V48.15Z" fill="white"/>
<path d="M71.3699 25.9759L73.8907 23.4524L76.4142 25.9741L73.8925 28.4968L71.3699 25.9759Z" fill="white"/>
<path d="M56.7619 49.9333C56.7619 49.4605 56.5738 49.0068 56.2394 48.6725L51.7167 44.1514V23.1833H48.15V44.1514L44.1497 48.15H26.75V51.7167H44.1497L48.6725 56.2377C49.3691 56.9334 50.4976 56.9334 51.1942 56.2377L56.2394 51.1942C56.5738 50.8598 56.7619 50.4062 56.7619 49.9333ZM49.9333 52.4551L47.4116 49.9333L49.9333 47.4116L52.4551 49.9333L49.9333 52.4551Z" fill="white"/>
<path d="M80.25 53.5C65.4765 53.5 53.5 65.4765 53.5 80.25C53.5 95.0235 65.4765 107 80.25 107C95.0235 107 107 95.0235 107 80.25C106.983 65.4835 95.0165 53.5165 80.25 53.5ZM80.25 103.433C67.4462 103.433 57.0667 93.0538 57.0667 80.25C57.0667 67.4462 67.4462 57.0667 80.25 57.0667C93.0538 57.0667 103.433 67.4462 103.433 80.25C103.419 93.0477 93.0477 103.419 80.25 103.433Z" fill="white"/>
<path d="M75.6367 85.8687V88.3789H85.0818V90.804H75.6367V95.7818H71.3396V90.804H67V88.3789H71.3396V66H83.0396C86.9255 66 89.9604 66.8651 92.1444 68.5953C94.3284 70.2971 95.4204 72.7364 95.4204 75.9131C95.4204 79.1182 94.3284 81.5858 92.1444 83.316C89.9604 85.0178 86.9255 85.8687 83.0396 85.8687H75.6367ZM91.1233 75.9556C91.1233 73.9418 90.4284 72.396 89.0385 71.3182C87.6487 70.2404 85.6491 69.7015 83.0396 69.7015H75.6367V82.3375H83.0396C85.6207 82.3375 87.6062 81.7844 88.996 80.6782C90.4142 79.5436 91.1233 77.9695 91.1233 75.9556Z" fill="white"/>
</svg>

<svg width="107" height="107" fill="none" xmlns="http://www.w3.org/2000/svg"><path d="M49.933 96.3a46.33 46.33 0 1 1 46.083-41.21l3.548.387c.2-1.84.302-3.691.303-5.544C99.867 22.356 77.51 0 49.933 0 22.356 0 0 22.356 0 49.933c0 27.578 22.356 49.934 49.933 49.934 1.853 0 3.705-.102 5.546-.305l-.392-3.546a46.969 46.969 0 0 1-5.154.284z" fill="#fff"/><path d="M92.694 51.793c.025-.611.04-1.235.04-1.86 0-23.637-19.163-42.8-42.8-42.8-23.638 0-42.8 19.163-42.8 42.8 0 23.638 19.162 42.8 42.8 42.8.624 0 1.245-.013 1.861-.039l-.157-3.567c-.565.027-1.133.04-1.705.04C28.265 89.167 10.7 71.6 10.7 49.933 10.7 28.265 28.265 10.7 49.933 10.7c21.669 0 39.234 17.565 39.234 39.233 0 .57-.013 1.142-.038 1.707l3.565.153z" fill="#fff"/><path d="M48.15 14.267h3.567v3.566H48.15v-3.566zM23.453 25.973l2.523-2.52 2.52 2.522-2.522 2.522-2.52-2.524zM14.267 48.15h3.566v3.567h-3.566V48.15zm9.185 25.743l2.521-2.522 2.524 2.52-2.522 2.523-2.523-2.52zm24.698 8.14h3.567V85.6H48.15v-3.567zM82.033 48.15H85.6v3.567h-3.567V48.15zM71.37 25.976l2.52-2.524 2.524 2.522-2.522 2.523-2.522-2.521zM56.762 49.933a1.78 1.78 0 0 0-.523-1.26l-4.522-4.522V23.183H48.15v20.968l-4 3.999h-17.4v3.567h17.4l4.523 4.52a1.784 1.784 0 0 0 2.521 0l5.045-5.043a1.78 1.78 0 0 0 .523-1.26zm-6.829 2.522l-2.521-2.522 2.521-2.521 2.522 2.521-2.522 2.522zM80.25 53.5c-14.773 0-26.75 11.977-26.75 26.75S65.477 107 80.25 107 107 95.023 107 80.25c-.017-14.766-11.984-26.733-26.75-26.75zm0 49.933c-12.804 0-23.183-10.38-23.183-23.183 0-12.804 10.38-23.183 23.183-23.183 12.804 0 23.183 10.38 23.183 23.183-.014 12.798-10.385 23.169-23.183 23.183z" fill="#fff"/><path d="M75.637 85.869v2.51h9.445v2.425h-9.445v4.978H71.34v-4.978H67v-2.425h4.34V66h11.7c3.885 0 6.92.865 9.104 2.595 2.184 1.702 3.276 4.141 3.276 7.318 0 3.205-1.092 5.673-3.276 7.403-2.184 1.702-5.219 2.553-9.104 2.553h-7.403zm15.486-9.913c0-2.014-.695-3.56-2.085-4.638-1.39-1.078-3.389-1.617-5.998-1.617h-7.403v12.637h7.403c2.58 0 4.566-.554 5.956-1.66 1.418-1.134 2.127-2.709 2.127-4.722z" fill="#fff"/></svg>
